!!!Xfilter: transpose -t P8
!!!OTL: 795. Auswandererlied.
!!!ARE: Europa, Mitteleuropa, Deutschland, Hessen, Oberhessen; Wetterau
!!!SCT: E0795
!!!TXL: @@DE
!!!YEM: Copyright 1995, estate of Helmut Schaffrath.
**kern	**text
*ICvox	*
*M4/4	*
*met(c)	*
*k[]	*
*C:	*
!LO:TX:a:t=Etwas langsam.	!
!LO:TX:a:t=Aus Oberheſſen u. der Wetterau 1880-90.	!
{4g	Nun
=1	=1
4.cc	iſt
8g	die
8e	Ʒeit
8c	und
8.g	Stun-
16f	-de
=2	=2
2g	da,
4r}	.
{8bL	wir
8ccJ	.
=3	=3
4.dd	rei-
8cc	-ſen
8b	nach
8a	A-
8g	-me-
8ee	-ri-
=4	=4
2cc	-ka.
8r}	.
{8g	Die
8a	Wa-
8b/	-gen
=5	=5
4cc	ſtehn
4ee	ſchon
4dd	vor
4gg	der
=6	=6
[2ee	Thür,
8ee]}	.
{8dd	mit
8cc	Weib
8b	und
=7	=7
(4a	Kind
8ff)	.
8dd	marſchieren
4ee	.
4dd	.
=8	=8
2cc	wir.
8r}	.
{8g	Die
8a	Wa-
8b/	-gen
=9	=9
4cc	ſtehn
4ee	ſchon
4dd	vor
4gg	der
=10	=10
[2ee	Thür,
8ee]}	.
{8dd	mit
8cc	Weib
8b	und
=11	=11
(4a	Kind
8ff)	.
8dd	marſchieren
4ee	.
4dd	.
=12	=12
2cc	wir.
4r}	.
==	==
!!!AGN: Abschieds - Lied, Auswanderung
!!!ONB: ESAC (Essen Associative Code) Database: ERK2
!!!AMT: simple quadruple
!!!AIN: vox
!!!EED: Helmut Schaffrath
!!!EEV: 1.0
!!!GTL: Abschieds- und Wanderlieder
!!!URL-scan: https://rosdok.uni-rostock.de/mcrviewer/recordIdentifier/rosdok_ppn745177662/iview2/phys_0600.iview2?x=193.8995864193107&y=2207.4745726617984&scale=0.7029437510502773&rotation=0&layout=singlePageLayout
!!!ENC: Anna Maria Matuszewska
!!!EEV: 2024/12/17
*-	*-
